!!!COM: Palestrina, Giovanni Perluigi da
!!!OPR: Missa Sine nomine (Mantuan)
!!!OTL: Kyrie
**kern	**kern	**kern	**kern
*Ibass	*Itenor	*Icalto	*Icant
!Bassus	!Tenor	!Altus	!Cantus
*clefF4	*clefGv2	*clefG2	*clefG2
*k[]	*k[]	*k[]	*k[]
*G:mix	*G:mix	*G:mix	*G:mix
*M4/2	*M4/2	*M4/2	*M4/2
=1	=1	=1	=1
0C	0c	0e	0g
=2	=2	=2	=2
1G	1B	1d	1g
1E	1G	1c	1g
=3	=3	=3	=3
0D	1.A	0d	0f
.	2B	.	.
=4	=4	=4	=4
1C	1c	2e	1.e
.	.	1g	.
[1c	1A	.	.
.	.	2f#	4d
.	.	.	4c
=5	=5	=5	=5
2c]	0G	0g	0d
4B	.	.	.
4A	.	.	.
1B	.	.	.
=6	=6	=6	=6
1c	2r	2r	1e
.	1c	1e	.
1G	.	.	1r
.	2B	2d	.
=7	=7	=7	=7
0r	2c	2e	1r
.	2A	2c	.
.	2B	2d	2r
.	2c	2e	[2g
=8	=8	=8	=8
2r	1A	1c	2g]
1c	.	.	2f#
.	1G	1d	1g
2B	.	.	.
=9	=9	=9	=9
2c	0r	1r	2e
2A	.	.	2f
2B	.	2r	2g
2c	.	[2g	[2e
=10	=10	=10	=10
1A	2r	2g]	2e]
.	1c	2f#	4d
.	.	.	4c
1G	.	1g	1d
.	2B	.	.
=11	=11	=11	=11
0r	2c	2e	2r
.	2A	2f	2c
.	2B	1g	2d
.	2c	.	[2e
=12	=12	=12	=12
1r	1A	1c	4e]
.	.	.	4d
.	.	.	1c
2r	1G	1d	.
[2G	.	.	4B
.	.	.	4A
=13	=13	=13	=13
2G]	0r	1d	2B
2F#	.	.	2A
2G	.	2d	2B
2E	.	[2e	2G
=14	=14	=14	=14
2F	1r	4e]	2A
.	.	4d	.
2G	.	1d	2B
1E	2r	.	1G
.	[2g	2c#	.
=15	=15	=15	=15
1D	2g]	1d	2r
.	2f#	.	2d
1E	2g	1r	2B
.	2e	.	2c
=16	=16	=16	=16
2D	2f	0r	2d
2C	2g	.	2.e
2.E	1e	.	.
.	.	.	4d
.	.	.	[2c
4F	.	.	.
=17	=17	=17	=17
1G	1d	1r	2c]
.	.	.	2B
1C	1e	2r	2c
.	.	[2c	[2e
=18	=18	=18	=18
1G	2r	2c]	2e]
.	1g	2B	2d
2C	.	2c	2e
2D	2f#	2A	[2d
=19	=19	=19	=19
2G	2g	2B	4d]
.	.	.	4G
2C	2e	2c	1g
1D	2.d	1A	.
.	.	.	2f#
.	4c	.	.
=20	=20	=20	=20
1E	1B	1G	[0g
1C	1e	1c	.
=21	=21	=21	=21
[0G	[0d	[0B	1g_
.	.	.	1g_
=22	=22	=22	=22
0G]	0d]	0B]	0g]
=23	=23	=23	=23
0r	0G	0r	0e
=24	=24	=24	=24
0r	1A	0r	1e
.	1A	.	1f
=25	=25	=25	=25
0r	2.G	0r	1.g
.	4A	.	.
.	4B	.	.
.	4c	.	.
.	[2d	.	2f
=26	=26	=26	=26
0G	2d]	0g	1e
.	1c	.	.
.	.	.	1d
.	2B	.	.
=27	=27	=27	=27
1A	1c	1e	0c
1A	1r	1f	.
=28	=28	=28	=28
2.G	0r	1.g	0r
4A	.	.	.
4B	.	.	.
4c	.	.	.
[2d	.	2f	.
=29	=29	=29	=29
2d]	0G	1e	0g
1c	.	.	.
.	.	1d	.
2B	.	.	.
=30	=30	=30	=30
1c	1A	1c	1e
1r	1A	1r	1f
=31	=31	=31	=31
0C	0G	0c	2.g
.	.	.	4f
.	.	.	2e
.	.	.	2c
=32	=32	=32	=32
1D	0r	1A	1.f
1D	.	1B	.
.	.	.	4e
.	.	.	4d
=33	=33	=33	=33
1C	0g	1c	1e
1r	.	2B	2d
.	.	[2c	[2e
=34	=34	=34	=34
1r	1e	4c]	4e]
.	.	4B	4d
.	.	4A	4c
.	.	4G	4B
2r	1f	1A	1c
[2c	.	.	.
=35	=35	=35	=35
2c]	1.g	1G	2d
2B	.	.	2G
2c	.	1r	2A
[2d	2f	.	2B
=36	=36	=36	=36
4d]	1e	1r	1c
4c	.	.	.
1c	.	.	.
.	1d	2r	1G
2B	.	2d	.
=37	=37	=37	=37
1A	1c	2e	2r
.	.	2f	2c
1G	2r	1g	2d
.	2B	.	2e
=38	=38	=38	=38
2.F	2c	1r	1f
.	2d	.	.
4E	.	.	.
2C	2.e	2r	1g
2E	.	2G	.
.	4c	.	.
=39	=39	=39	=39
1D	1f	2A	2r
.	.	2B	2d
2C	2e	2c	2e
[2c	2c	2A	2f
=40	=40	=40	=40
2c]	1d	2G	1g
2B	.	2d	.
1A	2r	2e	1c
.	2c	2f	.
=41	=41	=41	=41
1G	2d	1g	2r
.	2e	.	2G
1F	1f	[1c	2.A
.	.	.	4B
=42	=42	=42	=42
2C	2.e	1c]	2c
1c	.	.	2A
.	4c	.	.
.	2e	2r	1G
2B	[2d	2d	.
=43	=43	=43	=43
1A	4d]	2e	2r
.	4c	.	.
.	1c	2f	2c
1G	.	1g	2d
.	2B	.	2e
=44	=44	=44	=44
0F	0A	[0c	0f
=45	=45	=45	=45
[0C	[0G	1c_	[0e
.	.	1c_	.
=46	=46	=46	=46
0C]	0G]	0c]	0e]
=47	=47	=47	=47
0C	0c	0r	1r
.	.	.	[1g
=48	=48	=48	=48
1E	1B	1r	1g]
1F	1A	[1c	1f
=49	=49	=49	=49
1C	0G	1c]	1e
2r	.	1B	1d
2G	.	.	.
=50	=50	=50	=50
2A	1r	1A	1c
1c	.	.	.
.	[1g	1G	1d
2B	.	.	.
=51	=51	=51	=51
1c	1g]	0r	1e
1F	1f	.	2c
.	.	.	[2d
=52	=52	=52	=52
0G	1e	1r	2d]
.	.	.	1c
.	1d	[1g	.
.	.	.	2B
=53	=53	=53	=53
1C	1e	1g]	1c
1r	2c	1f	2A
.	[2d	.	2B
=54	=54	=54	=54
0r	4d]	1e	1c
.	4c	.	.
.	1c	.	.
.	.	1d	1G
.	2B	.	.
=55	=55	=55	=55
1r	1e	1c	2r
.	.	.	1c
[1G	2.d	1r	.
.	.	.	4B
.	4c	.	4A
=56	=56	=56	=56
1G]	2d	0r	1B
.	2.e	.	.
1F	.	.	1A
.	4d	.	.
.	[2d	.	.
=57	=57	=57	=57
1E	2d]	2r	1G
.	2c	1g	.
2D	1d	.	1r
[2d	.	4f	.
.	.	4e	.
=58	=58	=58	=58
2d]	1A	2f	1r
1c	.	1e	.
.	1r	.	2r
2B	.	[2d	[2g
=59	=59	=59	=59
1A	0r	4d]	2g]
.	.	4c	.
.	.	1c	2f
2.G	.	.	2e
.	.	2B	[2d
4F	.	.	.
=60	=60	=60	=60
2E	2r	1e	4d]
.	.	.	4c
2C	1g	.	2c
1D	.	1d	2B
.	2f	.	2A
=61	=61	=61	=61
1C	1e	2r	2.c
.	.	1g	.
.	.	.	4B
1D	2.d	.	1A
.	.	2f	.
.	4c	.	.
=62	=62	=62	=62
1G	2B	2d	2G
.	2G	2e	1g
2r	1A	1c	.
[2c	.	.	2f
=63	=63	=63	=63
2c]	1G	2r	2e
2B	.	1g	2.d
1A	1r	.	.
.	.	.	4c
.	.	2f	[2c
=64	=64	=64	=64
2.G	1r	2e	2c]
.	.	2.d	2B
4F	.	.	.
2E	2r	.	1e
.	.	4c	.
2C	[2g	2c	.
=65	=65	=65	=65
1D	2g]	2B	1d
.	2f	2A	.
1C	1e	2.c	2r
.	.	.	[2g
.	.	4B	.
=66	=66	=66	=66
1D	2.d	1A	2g]
.	.	.	2f
.	4c	.	.
1E	2B	2G	2e
.	2G	[2g	2c
=67	=67	=67	=67
0D	0A	2g]	0d
.	.	4f#	.
.	.	4e	.
.	.	1f#	.
=68	=68	=68	=68
1E	[0G	1g	1B
1C	.	1e	1c
=69	=69	=69	=69
[0G	1G_	[0d	[0B
.	1G_	.	.
=70	=70	=70	=70
0G]	0G]	0d]	0B]
==	==	==	==
*-	*-	*-	*-
!!!CDT: 1525/^1526/-1594/2/2
!!!OCY: Italia
!!!AGN: Mass (Free)
!!!AST: renaissance, vocal
!!!ASW: Motet (Maffoni)
!!!PWK: Masses, Book Mantuan II
!!!RNB: Cadence finals: C
!!!YOR: Le Opere Complete, v. 19, p. 168
!!!YOO: Rome, Italy: Fratelli Scalera
!!!END: 1992//
!!!EED: John Miller
!!!YEC: Copyright 2000, John Miller
!!!YEN: United States of America
!!!YEM: Rights to all derivative electronic formats reserved.
!!!YEM: Refer to licensing agreement for further details.
!!!YEM: This file must be accompanied by the licensing agreement.
!!!YEM: A copy of the licensing agreement may be found at http://www.music-cog.ohio-state.edu/HumdrumDatabases/Palestrina/license.txt
!!!EMD: converted to Humdrum by Bret Aarden
